X: 32833
T: Port An Fhéile Phobail
R: jig
M: 6/8
K: Dmajor
ABA FED|Ace dcA|BAG EFG|AFD ~E2G|
FDD ADD|Ace dcA|Bdg afd|1 ecA dcB:|2 ecA dfg||
|:a/a/a f afd|aba agf|ecA Acd|efg ecA|
dcA G/G/G E|DFA dcA|Bdg afd|1 ecA dfg:|2 ecA dcB||

